src/xmb/retrosystem/VTech - CreatiVision-content.svg

<?xml version="1.0" encoding="UTF-8" standalone="no"?>
<svg
   xmlns:dc="http://purl.org/dc/elements/1.1/"
   xmlns:cc="http://creativecommons.org/ns#"
   xmlns:rdf="http://www.w3.org/1999/02/22-rdf-syntax-ns#"
   xmlns:svg="http://www.w3.org/2000/svg"
   xmlns="http://www.w3.org/2000/svg"
   xmlns:sodipodi="http://sodipodi.sourceforge.net/DTD/sodipodi-0.dtd"
   xmlns:inkscape="http://www.inkscape.org/namespaces/inkscape"
   viewBox="0 0 341.33334 341.33334"
   height="256"
   width="256"
   xml:space="preserve"
   id="svg2"
   version="1.1"
   sodipodi:docname="VTech - CreatiVision-content.svg"
   inkscape:version="0.92.2 (5c3e80d, 2017-08-06)"><sodipodi:namedview
     pagecolor="#ffffff"
     bordercolor="#666666"
     borderopacity="1"
     objecttolerance="10"
     gridtolerance="10"
     guidetolerance="10"
     inkscape:pageopacity="0"
     inkscape:pageshadow="2"
     inkscape:window-width="1920"
     inkscape:window-height="1001"
     id="namedview35"
     showgrid="false"
     inkscape:pagecheckerboard="true"
     inkscape:zoom="3.9111843"
     inkscape:cx="6.1486254"
     inkscape:cy="223.77177"
     inkscape:window-x="-9"
     inkscape:window-y="-9"
     inkscape:window-maximized="1"
     inkscape:current-layer="svg2" /><metadata
     id="metadata8"><rdf:RDF><cc:Work
         rdf:about=""><dc:format>image/svg+xml</dc:format><dc:type
           rdf:resource="http://purl.org/dc/dcmitype/StillImage" /><dc:title /></cc:Work></rdf:RDF></metadata><defs
     id="defs6"><clipPath
       id="clipPath18"
       clipPathUnits="userSpaceOnUse"><path
         id="path16"
         d="M 0,256 H 256 V 0 H 0 Z" /></clipPath><clipPath
       id="clipPath26"
       clipPathUnits="userSpaceOnUse"><path
         id="path24"
         d="M 28,252 H 228 V 4 H 28 Z" /></clipPath></defs><path
     id="path38"
     style="fill:#333333;fill-opacity:1;fill-rule:nonzero;stroke:none;stroke-width:1.33333325"
     d="m 287.99999,106.66667 v -5.33333 h 5.33333 V 90.66667 h -5.33333 v -5.333333 h 5.33333 V 74.666671 h -5.33333 v -5.333333 h 5.33333 V 58.666671 h -5.33333 v -5.333333 h 5.33333 V 42.666672 h -5.33333 v -5.333334 h 5.33333 V 21.333339 l -5.33333,-5.333333 H 53.333329 l -5.333333,5.333333 v 15.999999 h 5.333333 v 5.333334 h -5.333333 v 10.666666 h 5.333333 v 5.333333 h -5.333333 v 10.666667 h 5.333333 v 5.333333 h -5.333333 v 10.666666 h 5.333333 v 5.333333 h -5.333333 v 10.66667 h 5.333333 v 5.33333 H 47.999996 V 320 l 5.333333,5.33333 H 287.99999 L 293.33332,320 V 106.66667 Z"
     inkscape:connector-curvature="0" /><path
     inkscape:connector-curvature="0"
     d="M 63.999998,42.666671 H 53.333332 v -5.333333 h 10.666666 z"
     style="fill:#1a1a1a;fill-opacity:1;fill-rule:nonzero;stroke:none;stroke-width:1.33333325"
     id="path40" /><path
     inkscape:connector-curvature="0"
     d="M 63.999998,58.66667 H 53.333332 v -5.333333 h 10.666666 z"
     style="fill:#1a1a1a;fill-opacity:1;fill-rule:nonzero;stroke:none;stroke-width:1.33333325"
     id="path42" /><path
     inkscape:connector-curvature="0"
     d="M 63.999998,74.66667 H 53.333332 v -5.333333 h 10.666666 z"
     style="fill:#1a1a1a;fill-opacity:1;fill-rule:nonzero;stroke:none;stroke-width:1.33333325"
     id="path44" /><path
     inkscape:connector-curvature="0"
     d="M 63.999998,90.66667 H 53.333332 v -5.333334 h 10.666666 z"
     style="fill:#1a1a1a;fill-opacity:1;fill-rule:nonzero;stroke:none;stroke-width:1.33333325"
     id="path46" /><path
     inkscape:connector-curvature="0"
     d="M 63.999998,106.66667 H 53.333332 v -5.33333 h 10.666666 z"
     style="fill:#1a1a1a;fill-opacity:1;fill-rule:nonzero;stroke:none;stroke-width:1.33333325"
     id="path48" /><path
     inkscape:connector-curvature="0"
     d="m 287.99999,42.666671 h -10.66666 v -5.333333 h 10.66666 z"
     style="fill:#1a1a1a;fill-opacity:1;fill-rule:nonzero;stroke:none;stroke-width:1.33333325"
     id="path50" /><path
     inkscape:connector-curvature="0"
     d="m 287.99999,58.66667 h -10.66666 v -5.333333 h 10.66666 z"
     style="fill:#1a1a1a;fill-opacity:1;fill-rule:nonzero;stroke:none;stroke-width:1.33333325"
     id="path52" /><path
     inkscape:connector-curvature="0"
     d="m 287.99999,74.66667 h -10.66666 v -5.333333 h 10.66666 z"
     style="fill:#1a1a1a;fill-opacity:1;fill-rule:nonzero;stroke:none;stroke-width:1.33333325"
     id="path54" /><path
     inkscape:connector-curvature="0"
     d="m 287.99999,90.66667 h -10.66666 v -5.333334 h 10.66666 z"
     style="fill:#1a1a1a;fill-opacity:1;fill-rule:nonzero;stroke:none;stroke-width:1.33333325"
     id="path56" /><path
     inkscape:connector-curvature="0"
     d="m 287.99999,106.66667 h -10.66666 v -5.33333 h 10.66666 z"
     style="fill:#1a1a1a;fill-opacity:1;fill-rule:nonzero;stroke:none;stroke-width:1.33333325"
     id="path58" /><path
     inkscape:connector-curvature="0"
     d="M 271.99999,170.66667 H 69.333332 v -16 H 271.99999 Z"
     style="fill:#191919;fill-opacity:1;fill-rule:nonzero;stroke:none;stroke-width:1.33333325"
     id="path60" /><path
     id="path64"
     style="fill:#262626;fill-opacity:1;fill-rule:nonzero;stroke:none;stroke-width:1.33333325"
     d="M 287.99999,16.000005 H 53.333329 l -5.333333,5.333333 H 69.333329 V 112 H 271.99999 V 21.333338 h 21.33333 z"
     inkscape:connector-curvature="0" /><path
     id="path68"
     style="fill:#000000;fill-opacity:1;fill-rule:nonzero;stroke:none;stroke-width:1.33333325"
     d="M 255.99999,21.333338 H 85.333328 L 74.666661,69.333337 V 106.66667 H 266.66666 V 69.333337 Z"
     inkscape:connector-curvature="0" /><g
     id="g872"
     transform="matrix(1.4999869,0,0,1.4999626,-127.27425,-294.68032)"
     style="fill:#e6e6e6"><g
       transform="matrix(1.3333333,0,0,-1.3333333,161.29535,247.12598)"
       id="g102"
       style="fill:#e6e6e6"><path
         id="path104"
         style="fill:#e6e6e6;fill-opacity:1;fill-rule:nonzero;stroke:none"
         d="M 0,0 14.062,12 V 6.757 L 20.009,12 V 3.946 c 0,0 4.088,7.676 4.336,7.676 0.248,0 9.726,-0.054 9.726,-0.054 L 32.522,8.757 H 26.885 L 26.08,7.243 h 3.159 L 27.381,4.108 H 24.965 L 24.283,2.865 h 11.398 l 0.744,1.189 h -5.699 l 4.398,7.622 h 9.911 L 43.301,8.703 h -5.637 l -0.929,-1.46 h 5.823 L 38.469,0 H 15.735 L 15.858,3.892 11.336,0 11.15,3.946 6.628,0 Z"
         inkscape:connector-curvature="0" /></g><g
       transform="matrix(1.3333333,0,0,-1.3333333,221.34254,231.7025)"
       id="g106"
       style="fill:#e6e6e6"><path
         id="path108"
         style="fill:#e6e6e6;fill-opacity:1;fill-rule:nonzero;stroke:none"
         d="M 0,0 C 0,0 -0.044,0 -0.121,0.001 L -1.215,-2.205 Z"
         inkscape:connector-curvature="0" /></g><g
       transform="matrix(1.3333333,0,0,-1.3333333,233.64934,235.52238)"
       id="g110"
       style="fill:#e6e6e6"><path
         id="path112"
         style="fill:#e6e6e6;fill-opacity:1;fill-rule:nonzero;stroke:none"
         d="m 0,0 1.735,2.973 h -9.912 l -4.398,-7.622 h 5.699 l -0.743,-1.189 h -5.493 l -1.684,-2.865 h 9.964 l 4.089,7.244 H -6.566 L -5.637,0 Z"
         inkscape:connector-curvature="0" /></g></g></svg>

<svg xmlns="http://www.w3.org/2000/svg" xml:space="preserve" width="256" height="256" viewBox="0 0 341.333 341.333"><path d="M288 106.667v-5.334h5.333V90.667H288v-5.334h5.333V74.667H288v-5.334h5.333V58.667H288v-5.334h5.333V42.667H288v-5.334h5.333v-16L288 16H53.333L48 21.333v16h5.333v5.334H48v10.666h5.333v5.334H48v10.666h5.333v5.334H48v10.666h5.333v5.334H48v10.666h5.333v5.334H48V320l5.333 5.333H288l5.333-5.333V106.667Z" style="fill:#333;fill-opacity:1;fill-rule:nonzero;stroke:none;stroke-width:1.33333325"/><path d="M64 42.667H53.333v-5.334H64zm0 16H53.333v-5.334H64zm0 16H53.333v-5.334H64zm0 16H53.333v-5.334H64zm0 16H53.333v-5.334H64zm224-64h-10.667v-5.334H288zm0 16h-10.667v-5.334H288zm0 16h-10.667v-5.334H288zm0 16h-10.667v-5.334H288zm0 16h-10.667v-5.334H288z" style="fill:#1a1a1a;fill-opacity:1;fill-rule:nonzero;stroke:none;stroke-width:1.33333325"/><path d="M272 170.667H69.333v-16H272Z" style="fill:#191919;fill-opacity:1;fill-rule:nonzero;stroke:none;stroke-width:1.33333325"/><path d="M288 16H53.333L48 21.333h21.333V112H272V21.333h21.333z" style="fill:#262626;fill-opacity:1;fill-rule:nonzero;stroke:none;stroke-width:1.33333325"/><path d="M256 21.333H85.333l-10.666 48v37.334h192V69.333Z" style="fill:#000;fill-opacity:1;fill-rule:nonzero;stroke:none;stroke-width:1.33333325"/><g style="fill:#e6e6e6"><g style="fill:#e6e6e6"><path d="m0 0 14.062 12V6.757L20.009 12V3.946s4.088 7.676 4.336 7.676 9.726-.054 9.726-.054l-1.549-2.811h-5.637l-.805-1.514h3.159l-1.858-3.135h-2.416l-.682-1.243h11.398l.744 1.189h-5.699l4.398 7.622h9.911l-1.734-2.973h-5.637l-.929-1.46h5.823L38.469 0H15.735l.123 3.892L11.336 0l-.186 3.946L6.628 0Z" style="fill:#e6e6e6;fill-opacity:1;fill-rule:nonzero;stroke:none" transform="matrix(1.99998 0 0 -1.99995 114.667 76)"/></g><g style="fill:#e6e6e6"><path d="m0 0-.121.001-1.094-2.206Z" style="fill:#e6e6e6;fill-opacity:1;fill-rule:nonzero;stroke:none" transform="matrix(1.99998 0 0 -1.99995 204.737 52.865)"/></g><g style="fill:#e6e6e6"><path d="m0 0 1.735 2.973h-9.912l-4.398-7.622h5.699l-.743-1.189h-5.493l-1.684-2.865h9.964l4.089 7.244h-5.823L-5.637 0Z" style="fill:#e6e6e6;fill-opacity:1;fill-rule:nonzero;stroke:none" transform="matrix(1.99998 0 0 -1.99995 223.197 58.594)"/></g></g></svg>
